kora/apps/scalable/microsoft-365.svg

<svg clip-rule="evenodd" fill-rule="evenodd" stroke-linejoin="round" stroke-miterlimit="2" viewBox="0 0 48 48" xmlns="http://www.w3.org/2000/svg">
 <g transform="matrix(1.0834 0 0 1.0834 -2.00159 -2.00158)" fill-rule="nonzero">
  <path d="m20.27 5.06 4.73-.06v7l-4 5-4 3v3.64c0 2.55 1.12 4.79 3.27 6.11l4.74 2.9-10.01 5.9h-1.93l-3.6-2.2c-2.15-1.32-3.47-3.68-3.47-6.23v-12.25c0-2.54 1.32-4.9 3.47-6.22z" fill="#1e73c7"/>
  <path d="m31 19v4.586c0 2.545-1.107 4.861-3.272 6.163l-8.728 5.251c-2.391 1.439-7.03 2.752-9.278 1.499l10.55 6.45c2.292 1.401 5.164 1.401 7.456 0l10.8-6.604c2.155-1.317 3.472-3.677 3.472-6.221v-3.124l-1-2z" fill="#8762b5"/>
  <path d="m27.726 5.05c-2.22-1.357-4.984-1.399-7.238-.126l-.215.131c-2.156 1.317-3.273 3.714-3.273 6.259v8.686l3.299-1.909c1.163-.673 2.402-1.105 3.701-1.091s2.593.414 3.752 1.091l10.775 6.285c2.114 1.233 3.39 3.531 3.469 5.985l.004-.238v-12.251c0-2.546-1.318-4.906-3.474-6.223z" fill="#4aafe8"/>
 </g>
</svg>

<svg xmlns="http://www.w3.org/2000/svg" width="48" height="48" version="1.1">
 <path style="opacity:0.2" d="M 24.119,5 C 22.864,5 21.615,5.2877 20.488,5.9238 L 9.4727,12.65 C 7.3165,13.967 6,16.327 6,18.873 V 31.123 C 6,33.668 7.3176,36.028 9.4727,37.346 L 20.271,43.949 C 22.563,45.35 25.437,45.35 27.729,43.949 L 38.527,37.346 C 40.627,36.063 41.928,33.789 41.994,31.32 41.995,31.334 41.996,31.348 41.996,31.361 41.999,31.282 42,31.203 42,31.123 V 18.871 C 42,16.326 40.683,13.966 38.527,12.648 L 27.727,6.0488 C 26.617,5.3706 25.372,5 24.119,5 Z M 24,18 C 25.299,18.014 26.593,18.415 27.752,19.092 L 31.199,21.104 V 24.527 C 31.199,27.072 29.884,29.43 27.729,30.748 L 23.998,33.029 20.271,30.752 C 18.116,29.434 17,27.189 17,24.645 V 21.002 L 20.299,19.092 C 21.462,18.419 22.701,17.986 24,18 Z"/>
 <path style="fill:#1e73c7" d="M 20.27,5.06 25,5 V 12 L 21,17 17,20 V 23.64 C 17,26.19 18.12,28.43 20.27,29.75 L 25.01,32.65 15,38.55 H 13.07 L 9.47,36.35 C 7.32,35.03 6,32.67 6,30.12 V 17.87 C 6,15.33 7.32,12.97 9.47,11.65 Z"/>
 <path style="fill:#8762b5" d="M 31,19 V 23.586 C 31,26.131 29.893,28.447 27.728,29.749 L 19,35 C 16.609,36.439 11.97,37.752 9.7219,36.499 L 20.272,42.949 C 22.564,44.35 25.436,44.35 27.728,42.949 L 38.528,36.345 C 40.683,35.028 42,32.668 42,30.124 V 27 L 41,25 Z"/>
 <path style="fill:#4aafe8" d="M 27.726,5.0498 C 25.506,3.6934 22.742,3.6514 20.488,4.9237 L 20.273,5.0549 C 18.117,6.3723 17,8.7689 17,11.314 V 20 L 20.299,18.091 C 21.462,17.418 22.701,16.986 24,17 25.299,17.014 26.593,17.414 27.752,18.091 L 38.527,24.376 C 40.641,25.609 41.917,27.907 41.996,30.361 L 42,30.123 V 17.872 C 42,15.326 40.682,12.966 38.526,11.649 Z"/>
 <path style="opacity:0.2" d="M 31 19.986 L 31 20.986 L 38.527 25.377 C 40.494 26.524 41.734 28.591 41.961 30.85 C 41.978 30.675 41.989 30.498 41.994 30.32 C 41.902 27.882 40.63 25.603 38.527 24.377 L 31 19.986 z"/>
 <path style="opacity:0.2;fill:#ffffff" d="M 24.119 4 C 22.864 4 21.615 4.2877 20.488 4.9238 L 9.4727 11.65 C 7.3165 12.967 6 15.327 6 17.873 L 6 18.873 C 6 16.327 7.3165 13.967 9.4727 12.65 L 20.488 5.9238 C 21.615 5.2877 22.864 5 24.119 5 C 25.372 5 26.617 5.3706 27.727 6.0488 L 38.527 12.648 C 40.683 13.966 42 16.326 42 18.871 L 42 17.871 C 42 15.326 40.683 12.966 38.527 11.648 L 27.727 5.0488 C 26.617 4.3706 25.372 4 24.119 4 z M 17 23.645 L 17 24.645 C 17 27.189 18.116 29.434 20.271 30.752 L 23.143 32.508 L 23.969 32.012 L 20.271 29.752 C 18.116 28.434 17 26.189 17 23.645 z M 28.701 29.031 C 28.399 29.294 28.076 29.536 27.729 29.748 C 28.082 29.535 28.404 29.294 28.701 29.031 z"/>
</svg>
